X: 38770
T: Strzygieł
R: jig
M: 6/8
K: Gmajor
G,2G, A,B,D|EDB, DB,A,|G2G EDB,|G,B,D EDB,|
G,2G, A,B,D|EDB, DB,A,|G2G EDB|AGE DB,A,:|
K:Dm
{G}A2A GFD|CDF DCB,|~G,2G, B,CD|FDC B,G,G,|
{G}A2A GFD|CDF DCB,|~G,2G, B,CD|FDC G,2G,:|

